public/images/wallet/Discountexpiredicon.svg

<svg width="86" height="181" viewBox="0 0 86 181" fill="none" xmlns="http://www.w3.org/2000/svg">
<g filter="url(#filter0_dd_5507_19256)">
<mask id="path-1-inside-1_5507_19256" fill="white">
<path fill-rule="evenodd" clip-rule="evenodd" d="M5 31.9832C5 17.0808 17.0808 5 31.9832 5H81.4524V20.0496C68.6901 21.2285 58.9652 27.3411 58.9652 34.7046C58.9652 42.0681 68.6901 48.1807 81.4524 49.3596V57.2212C68.6901 58.4 58.9652 64.5127 58.9652 71.8762C58.9652 79.2397 68.6901 85.3523 81.4524 86.5311V96.846C68.6901 98.0249 58.9652 104.137 58.9652 111.501C58.9652 118.865 68.6901 124.977 81.4524 126.156V136.475C68.6901 137.654 58.9652 143.767 58.9652 151.13C58.9652 158.494 68.6901 164.607 81.4524 165.785V175.894H31.9832C17.0808 175.894 5 163.813 5 148.91V31.9832Z"/>
</mask>
<path fill-rule="evenodd" clip-rule="evenodd" d="M5 31.9832C5 17.0808 17.0808 5 31.9832 5H81.4524V20.0496C68.6901 21.2285 58.9652 27.3411 58.9652 34.7046C58.9652 42.0681 68.6901 48.1807 81.4524 49.3596V57.2212C68.6901 58.4 58.9652 64.5127 58.9652 71.8762C58.9652 79.2397 68.6901 85.3523 81.4524 86.5311V96.846C68.6901 98.0249 58.9652 104.137 58.9652 111.501C58.9652 118.865 68.6901 124.977 81.4524 126.156V136.475C68.6901 137.654 58.9652 143.767 58.9652 151.13C58.9652 158.494 68.6901 164.607 81.4524 165.785V175.894H31.9832C17.0808 175.894 5 163.813 5 148.91V31.9832Z" fill="#D9D9D9"/>
<path d="M81.4524 5H82.2395V4.21299H81.4524V5ZM81.4524 20.0496L81.5248 20.8333L82.2395 20.7673V20.0496H81.4524ZM81.4524 49.3596H82.2395V48.6419L81.5248 48.5759L81.4524 49.3596ZM81.4524 57.2212L81.5248 58.0049L82.2395 57.9389V57.2212H81.4524ZM81.4524 86.5311H82.2395V85.8135L81.5248 85.7475L81.4524 86.5311ZM81.4524 96.846L81.5248 97.6297L82.2395 97.5637V96.846H81.4524ZM81.4524 126.156H82.2395V125.438L81.5248 125.372L81.4524 126.156ZM81.4524 136.475L81.5248 137.259L82.2395 137.193V136.475H81.4524ZM81.4524 165.785H82.2395V165.068L81.5248 165.002L81.4524 165.785ZM81.4524 175.894V176.681H82.2395V175.894H81.4524ZM31.9832 4.21299C16.6461 4.21299 4.21299 16.6462 4.21299 31.9832H5.78701C5.78701 17.5155 17.5155 5.78701 31.9832 5.78701V4.21299ZM81.4524 4.21299H31.9832V5.78701H81.4524V4.21299ZM82.2395 20.0496V5H80.6654V20.0496H82.2395ZM59.7522 34.7046C59.7522 31.3987 61.938 28.241 65.8494 25.7193C69.7465 23.2068 75.2394 21.4139 81.5248 20.8333L81.3801 19.266C74.9031 19.8642 69.1524 21.717 64.9965 24.3964C60.8548 27.0666 58.1782 30.647 58.1782 34.7046H59.7522ZM81.5248 48.5759C75.2394 47.9953 69.7465 46.2024 65.8494 43.6899C61.938 41.1682 59.7522 38.0105 59.7522 34.7046H58.1782C58.1782 38.7623 60.8548 42.3426 64.9965 45.0128C69.1524 47.6922 74.9031 49.545 81.3801 50.1432L81.5248 48.5759ZM82.2395 57.2212V49.3596H80.6654V57.2212H82.2395ZM59.7522 71.8762C59.7522 68.5703 61.938 65.4126 65.8494 62.8909C69.7465 60.3784 75.2394 58.5855 81.5248 58.0049L81.3801 56.4375C74.9031 57.0358 69.1524 58.8886 64.9965 61.568C60.8548 64.2382 58.1782 67.8185 58.1782 71.8762H59.7522ZM81.5248 85.7475C75.2394 85.1669 69.7465 83.374 65.8494 80.8615C61.938 78.3397 59.7522 75.182 59.7522 71.8762H58.1782C58.1782 75.9338 60.8548 79.5142 64.9965 82.1844C69.1524 84.8638 74.9031 86.7166 81.3801 87.3148L81.5248 85.7475ZM82.2395 96.846V86.5311H80.6654V96.846H82.2395ZM59.7522 111.501C59.7522 108.195 61.938 105.037 65.8494 102.516C69.7465 100.003 75.2394 98.2103 81.5248 97.6297L81.3801 96.0624C74.9031 96.6606 69.1524 98.5134 64.9965 101.193C60.8548 103.863 58.1782 107.443 58.1782 111.501H59.7522ZM81.5248 125.372C75.2394 124.792 69.7465 122.999 65.8494 120.486C61.938 117.965 59.7522 114.807 59.7522 111.501H58.1782C58.1782 115.559 60.8548 119.139 64.9965 121.809C69.1524 124.489 74.9031 126.341 81.3801 126.94L81.5248 125.372ZM82.2395 136.475V126.156H80.6654V136.475H82.2395ZM59.7522 151.13C59.7522 147.825 61.938 144.667 65.8494 142.145C69.7465 139.633 75.2394 137.84 81.5248 137.259L81.3801 135.692C74.9031 136.29 69.1524 138.143 64.9965 140.822C60.8548 143.492 58.1782 147.073 58.1782 151.13H59.7522ZM81.5248 165.002C75.2394 164.421 69.7465 162.628 65.8494 160.116C61.938 157.594 59.7522 154.436 59.7522 151.13H58.1782C58.1782 155.188 60.8548 158.768 64.9965 161.439C69.1524 164.118 74.9031 165.971 81.3801 166.569L81.5248 165.002ZM82.2395 175.894V165.785H80.6654V175.894H82.2395ZM31.9832 176.681H81.4524V175.107H31.9832V176.681ZM4.21299 148.91C4.21299 164.248 16.6462 176.681 31.9832 176.681V175.107C17.5155 175.107 5.78701 163.378 5.78701 148.91H4.21299ZM4.21299 31.9832V148.91H5.78701V31.9832H4.21299Z" fill="#D9D9D9" mask="url(#path-1-inside-1_5507_19256)"/>
</g>
<path d="M39.5781 137.855L39.5781 144.263L20.669 144.263L20.669 137.726C20.669 135.849 21.0476 134.236 21.8047 132.888C22.5556 131.534 23.6359 130.493 25.0455 129.767C26.455 129.041 28.1416 128.678 30.1051 128.678C32.0748 128.678 33.7675 129.044 35.1832 129.776C36.599 130.503 37.6854 131.552 38.4425 132.925C39.1996 134.291 39.5781 135.935 39.5781 137.855ZM36.6143 140.837L36.6143 138.021C36.6143 136.704 36.3743 135.605 35.8942 134.725C35.4079 133.845 34.6847 133.183 33.7244 132.74C32.758 132.297 31.5516 132.075 30.1051 132.075C28.6586 132.075 27.4583 132.297 26.5043 132.74C25.544 133.183 24.8269 133.839 24.353 134.707C23.8729 135.569 23.6328 136.64 23.6328 137.92L23.6328 140.837L36.6143 140.837ZM39.5781 125.571L25.3963 125.571L25.3963 122.228L39.5781 122.228L39.5781 125.571ZM23.3835 123.89C23.3835 124.42 23.2081 124.875 22.8572 125.257C22.5002 125.638 22.0724 125.829 21.5739 125.829C21.0691 125.829 20.6413 125.638 20.2905 125.257C19.9335 124.875 19.755 124.42 19.755 123.89C19.755 123.355 19.9335 122.899 20.2905 122.524C20.6413 122.142 21.0691 121.951 21.5739 121.951C22.0724 121.951 22.5002 122.142 22.8572 122.524C23.2081 122.899 23.3835 123.355 23.3835 123.89ZM29.1449 107.583L29.4773 110.63C29.1695 110.716 28.8802 110.867 28.6094 111.082C28.3385 111.291 28.12 111.574 27.9538 111.931C27.7876 112.288 27.7045 112.725 27.7045 113.242C27.7045 113.938 27.8553 114.523 28.157 114.997C28.4586 115.465 28.8494 115.695 29.3295 115.689C29.7419 115.695 30.0774 115.545 30.3359 115.237C30.5945 114.923 30.8068 114.406 30.973 113.686L31.4901 111.267C31.7794 109.925 32.2379 108.928 32.8658 108.275C33.4936 107.617 34.3153 107.284 35.331 107.278C36.2235 107.284 37.0114 107.546 37.6946 108.063C38.3717 108.574 38.901 109.285 39.2827 110.196C39.6643 111.107 39.8551 112.153 39.8551 113.335C39.8551 115.071 39.4919 116.468 38.7656 117.527C38.0331 118.585 37.0144 119.216 35.7095 119.419L35.3956 116.16C36.0357 116.012 36.5189 115.698 36.8452 115.218C37.1714 114.738 37.3345 114.113 37.3345 113.344C37.3345 112.55 37.1714 111.913 36.8452 111.433C36.5189 110.947 36.1158 110.703 35.6357 110.703C35.2294 110.703 34.8939 110.86 34.6293 111.174C34.3646 111.482 34.1615 111.962 34.0199 112.615L33.5121 115.034C33.2289 116.394 32.7519 117.4 32.081 118.053C31.4039 118.705 30.5483 119.028 29.5142 119.022C28.6402 119.028 27.883 118.791 27.2429 118.311C26.5966 117.825 26.098 117.151 25.7472 116.289C25.3902 115.421 25.2116 114.421 25.2116 113.289C25.2116 111.627 25.5656 110.319 26.2734 109.365C26.9813 108.404 27.9384 107.81 29.1449 107.583ZM39.8551 98.3358C39.8551 99.7516 39.5443 100.967 38.9226 101.983C38.3009 102.992 37.4422 103.771 36.3466 104.319C35.2448 104.86 33.9768 105.131 32.5426 105.131C31.1023 105.131 29.8312 104.854 28.7294 104.3C27.6214 103.746 26.7597 102.965 26.1442 101.955C25.5225 100.94 25.2116 99.7393 25.2116 98.3543C25.2116 97.2033 25.424 96.1846 25.8487 95.2982C26.2673 94.4057 26.8613 93.6947 27.6307 93.1654C28.3939 92.636 29.2865 92.3344 30.3082 92.2606L30.3082 95.4552C29.625 95.5844 29.0556 95.8922 28.6001 96.3785C28.1385 96.8586 27.9077 97.5018 27.9077 98.3081C27.9077 98.9914 28.0923 99.5915 28.4616 100.109C28.8248 100.626 29.348 101.029 30.0312 101.318C30.7145 101.601 31.5331 101.743 32.4872 101.743C33.4536 101.743 34.2846 101.601 34.9801 101.318C35.6695 101.035 36.2019 100.638 36.5774 100.127C36.9467 99.61 37.1314 99.0037 37.1314 98.3081C37.1314 97.8157 37.0391 97.3756 36.8544 96.9878C36.6636 96.5939 36.3897 96.2646 36.0327 95.9999C35.6757 95.7352 35.2417 95.5537 34.7308 95.4552L34.7308 92.2606C35.7341 92.3406 36.6236 92.636 37.3991 93.1469C38.1686 93.6578 38.7718 94.3534 39.2088 95.2336C39.6397 96.1138 39.8551 97.1479 39.8551 98.3358ZM39.8551 83.33C39.8551 84.7149 39.5504 85.9152 38.941 86.9308C38.3317 87.9465 37.4792 88.7343 36.3835 89.2945C35.2879 89.8485 34.0076 90.1254 32.5426 90.1254C31.0776 90.1254 29.7943 89.8485 28.6925 89.2945C27.5907 88.7343 26.7351 87.9465 26.1257 86.9308C25.5163 85.9152 25.2116 84.7149 25.2116 83.33C25.2116 81.945 25.5163 80.7448 26.1257 79.7291C26.7351 78.7135 27.5907 77.9287 28.6925 77.3747C29.7943 76.8146 31.0776 76.5345 32.5426 76.5345C34.0076 76.5345 35.2879 76.8146 36.3835 77.3747C37.4792 77.9287 38.3317 78.7135 38.941 79.7291C39.5504 80.7448 39.8551 81.945 39.8551 83.33ZM37.1776 83.3115C37.1776 82.5606 36.9714 81.9327 36.5589 81.428C36.1404 80.9233 35.5803 80.5478 34.8785 80.3016C34.1768 80.0492 33.3951 79.923 32.5334 79.923C31.6655 79.923 30.8807 80.0492 30.179 80.3016C29.4711 80.5478 28.9079 80.9233 28.4893 81.428C28.0708 81.9327 27.8615 82.5606 27.8615 83.3115C27.8615 84.0809 28.0708 84.7211 28.4893 85.232C28.9079 85.7367 29.4711 86.1153 30.179 86.3676C30.8807 86.6138 31.6655 86.7369 32.5334 86.7369C33.3951 86.7369 34.1768 86.6138 34.8785 86.3676C35.5803 86.1153 36.1404 85.7367 36.5589 85.232C36.9714 84.7211 37.1776 84.0809 37.1776 83.3115ZM33.6136 64.6586L25.3963 64.6586L25.3963 61.3163L39.5781 61.3163L39.5781 64.5571L37.0575 64.5571L37.0575 64.7048C37.8516 65.0249 38.5009 65.5512 39.0057 66.2836C39.5104 67.01 39.7628 67.9056 39.7628 68.9704C39.7628 69.8999 39.5566 70.7216 39.1442 71.4356C38.7256 72.1435 38.1193 72.6975 37.3253 73.0976C36.5251 73.4977 35.5587 73.6977 34.4261 73.6977L25.3963 73.6977L25.3963 70.3554L33.9091 70.3554C34.8078 70.3554 35.5218 70.1092 36.0511 69.6167C36.5805 69.1243 36.8452 68.478 36.8452 67.6778C36.8452 67.1854 36.7251 66.7084 36.4851 66.2467C36.245 65.7851 35.888 65.4065 35.4141 65.1111C34.9339 64.8095 34.3338 64.6586 33.6136 64.6586ZM31.2685 54.537L39.5781 54.537L39.5781 57.8793L25.3963 57.8793L25.3963 54.6847L27.8061 54.6847L27.8061 54.5186C27.0121 54.1923 26.3812 53.6722 25.9133 52.9582C25.4455 52.238 25.2116 51.3486 25.2116 50.2899C25.2116 49.3112 25.4209 48.4587 25.8395 47.7323C26.258 46.9999 26.8643 46.4336 27.6584 46.0335C28.4524 45.6272 29.4157 45.4272 30.5483 45.4333L39.5781 45.4333L39.5781 48.7757L31.0653 48.7757C30.1174 48.7757 29.3757 49.0219 28.8402 49.5143C28.3047 50.0006 28.0369 50.6746 28.0369 51.5363C28.0369 52.1211 28.1662 52.6412 28.4247 53.0967C28.6771 53.546 29.0433 53.8999 29.5234 54.1585C30.0035 54.4108 30.5852 54.537 31.2685 54.537ZM25.3963 34.9539L27.9815 34.9539L27.9815 43.1066L25.3963 43.1066L25.3963 34.9539ZM21.9986 41.0938L21.9986 37.7515L35.3125 37.7515C35.7618 37.7515 36.1065 37.6838 36.3466 37.5484C36.5805 37.4068 36.7405 37.2222 36.8267 36.9944C36.9129 36.7667 36.956 36.5143 36.956 36.2373C36.956 36.028 36.9406 35.8372 36.9098 35.6649C36.879 35.4864 36.8513 35.3509 36.8267 35.2586L39.4396 34.6954C39.5012 34.8739 39.5689 35.1293 39.6428 35.4617C39.7166 35.788 39.7597 36.1881 39.772 36.662C39.7966 37.4991 39.6704 38.2532 39.3935 38.9241C39.1103 39.595 38.6733 40.1275 38.0824 40.5214C37.4915 40.9092 36.7528 41.1 35.8665 41.0938L21.9986 41.0938Z" fill="#FEFEFE"/>
<defs>
<filter id="filter0_dd_5507_19256" x="0.502798" y="0.502798" width="85.4469" height="179.888" filterUnits="userSpaceOnUse" color-interpolation-filters="sRGB">
<feFlood flood-opacity="0" result="BackgroundImageFix"/>
<feColorMatrix in="SourceAlpha" type="matrix" values="0 0 0 0 0 0 0 0 0 0 0 0 0 0 0 0 0 0 127 0" result="hardAlpha"/>
<feOffset dy="2.2486"/>
<feGaussianBlur stdDeviation="1.1243"/>
<feComposite in2="hardAlpha" operator="out"/>
<feColorMatrix type="matrix" values="0 0 0 0 0 0 0 0 0 0 0 0 0 0 0 0 0 0 0.1 0"/>
<feBlend mode="normal" in2="BackgroundImageFix" result="effect1_dropShadow_5507_19256"/>
<feColorMatrix in="SourceAlpha" type="matrix" values="0 0 0 0 0 0 0 0 0 0 0 0 0 0 0 0 0 0 127 0" result="hardAlpha"/>
<feOffset/>
<feGaussianBlur stdDeviation="2.2486"/>
<feComposite in2="hardAlpha" operator="out"/>
<feColorMatrix type="matrix" values="0 0 0 0 0 0 0 0 0 0 0 0 0 0 0 0 0 0 0.14 0"/>
<feBlend mode="normal" in2="effect1_dropShadow_5507_19256" result="effect2_dropShadow_5507_19256"/>
<feBlend mode="normal" in="SourceGraphic" in2="effect2_dropShadow_5507_19256" result="shape"/>
</filter>
</defs>
</svg>

<svg xmlns="http://www.w3.org/2000/svg" width="86" height="181" fill="none"><g filter="url(#a)"><mask id="b" fill="#fff"><path fill-rule="evenodd" d="M5 31.983C5 17.081 17.08 5 31.983 5h49.47v15.05C68.69 21.228 58.964 27.34 58.964 34.705c0 7.363 9.725 13.476 22.487 14.655v7.861C68.69 58.4 58.965 64.513 58.965 71.876c0 7.364 9.725 13.476 22.487 14.655v10.315c-12.762 1.179-22.487 7.291-22.487 14.655 0 7.364 9.725 13.476 22.487 14.655v10.319c-12.762 1.179-22.487 7.292-22.487 14.655 0 7.364 9.725 13.477 22.487 14.655v10.109H31.983C17.081 175.894 5 163.813 5 148.91V31.983Z" clip-rule="evenodd"/></mask><path fill="#D9D9D9" fill-rule="evenodd" d="M5 31.983C5 17.081 17.08 5 31.983 5h49.47v15.05C68.69 21.228 58.964 27.34 58.964 34.705c0 7.363 9.725 13.476 22.487 14.655v7.861C68.69 58.4 58.965 64.513 58.965 71.876c0 7.364 9.725 13.476 22.487 14.655v10.315c-12.762 1.179-22.487 7.291-22.487 14.655 0 7.364 9.725 13.476 22.487 14.655v10.319c-12.762 1.179-22.487 7.292-22.487 14.655 0 7.364 9.725 13.477 22.487 14.655v10.109H31.983C17.081 175.894 5 163.813 5 148.91V31.983Z" clip-rule="evenodd"/><path fill="#D9D9D9" d="M81.452 5h.788v-.787h-.788V5Zm0 15.05.073.783.715-.066v-.717h-.788Zm0 29.31h.788v-.718l-.715-.066-.073.784Zm0 7.861.073.784.715-.066v-.718h-.788Zm0 29.31h.788v-.718l-.715-.066-.073.784Zm0 10.315.073.784.715-.066v-.718h-.788Zm0 29.31h.788v-.718l-.715-.066-.073.784Zm0 10.319.073.784.715-.066v-.718h-.788Zm0 29.31h.788v-.717l-.715-.066-.073.783Zm0 10.109v.787h.788v-.787h-.788ZM31.983 4.213c-15.337 0-27.77 12.433-27.77 27.77h1.574c0-14.468 11.729-26.196 26.196-26.196V4.213Zm49.47 0h-49.47v1.574h49.47V4.213Zm.787 15.837V5h-1.575v15.05h1.575ZM59.752 34.705c0-3.306 2.186-6.464 6.097-8.986 3.897-2.512 9.39-4.305 15.676-4.886l-.145-1.567c-6.477.598-12.228 2.451-16.383 5.13-4.142 2.67-6.819 6.251-6.819 10.309h1.574Zm21.773 13.87c-6.286-.58-11.779-2.373-15.676-4.885-3.911-2.522-6.097-5.68-6.097-8.985h-1.574c0 4.057 2.677 7.638 6.819 10.308 4.155 2.68 9.906 4.532 16.383 5.13l.145-1.567Zm.715 8.646V49.36h-1.575v7.861h1.575ZM59.752 71.876c0-3.306 2.186-6.463 6.097-8.985 3.897-2.513 9.39-4.305 15.676-4.886l-.145-1.568c-6.477.599-12.228 2.452-16.383 5.131-4.142 2.67-6.819 6.25-6.819 10.308h1.574Zm21.773 13.871c-6.286-.58-11.779-2.373-15.676-4.885-3.911-2.522-6.097-5.68-6.097-8.986h-1.574c0 4.058 2.677 7.638 6.819 10.308 4.155 2.68 9.906 4.533 16.383 5.13l.145-1.566Zm.715 11.099V86.531h-1.575v10.315h1.575Zm-22.488 14.655c0-3.306 2.186-6.464 6.097-8.985 3.897-2.513 9.39-4.306 15.676-4.886l-.145-1.568c-6.477.599-12.228 2.451-16.383 5.131-4.142 2.67-6.819 6.25-6.819 10.308h1.574Zm21.773 13.871c-6.286-.58-11.779-2.373-15.676-4.886-3.911-2.521-6.097-5.679-6.097-8.985h-1.574c0 4.058 2.677 7.638 6.819 10.308 4.155 2.68 9.906 4.532 16.383 5.131l.145-1.568Zm.715 11.103v-10.319h-1.575v10.319h1.575ZM59.752 151.13c0-3.305 2.186-6.463 6.097-8.985 3.897-2.512 9.39-4.305 15.676-4.886l-.145-1.567c-6.477.598-12.228 2.451-16.383 5.13-4.142 2.67-6.819 6.251-6.819 10.308h1.574Zm21.773 13.872c-6.286-.581-11.779-2.374-15.676-4.886-3.911-2.522-6.097-5.68-6.097-8.986h-1.574c0 4.058 2.677 7.638 6.819 10.309 4.155 2.679 9.906 4.532 16.383 5.13l.145-1.567Zm.715 10.892v-10.109h-1.575v10.109h1.575Zm-50.257.787h49.47v-1.574h-49.47v1.574ZM4.213 148.91c0 15.338 12.433 27.771 27.77 27.771v-1.574c-14.468 0-26.196-11.729-26.196-26.197H4.213Zm0-116.927V148.91h1.574V31.983H4.213Z" mask="url(#b)"/></g><path fill="#FEFEFE" d="M39.578 137.855v6.408H20.67v-6.537c0-1.877.379-3.49 1.136-4.838.75-1.354 1.83-2.395 3.24-3.121 1.41-.726 3.097-1.089 5.06-1.089 1.97 0 3.662.366 5.078 1.098 1.416.727 2.502 1.776 3.26 3.149.757 1.366 1.135 3.01 1.135 4.93Zm-2.964 2.982v-2.816c0-1.317-.24-2.416-.72-3.296-.486-.88-1.21-1.542-2.17-1.985-.966-.443-2.172-.665-3.619-.665-1.446 0-2.647.222-3.6.665-.961.443-1.678 1.099-2.152 1.967-.48.862-.72 1.933-.72 3.213v2.917h12.981Zm2.964-15.266H25.396v-3.343h14.182v3.343Zm-16.195-1.681c0 .53-.175.985-.526 1.367-.357.381-.785.572-1.283.572a1.68 1.68 0 0 1-1.284-.572 1.932 1.932 0 0 1-.535-1.367c0-.535.178-.991.536-1.366.35-.382.778-.573 1.283-.573.498 0 .926.191 1.283.573.351.375.527.831.527 1.366Zm5.762-16.307.332 3.047a2.45 2.45 0 0 0-.868.452c-.27.209-.489.492-.655.849-.166.357-.25.794-.25 1.311 0 .696.151 1.281.453 1.755.302.468.692.698 1.172.692.413.006.748-.144 1.007-.452.259-.314.47-.831.637-1.551l.517-2.419c.29-1.342.748-2.339 1.376-2.992.628-.658 1.45-.991 2.465-.997.892.006 1.68.268 2.364.785.677.511 1.206 1.222 1.588 2.133.381.911.572 1.957.572 3.139 0 1.736-.363 3.133-1.09 4.192-.732 1.058-1.75 1.689-3.056 1.892l-.313-3.259c.64-.148 1.123-.462 1.45-.942.325-.48.489-1.105.489-1.874 0-.794-.164-1.431-.49-1.911-.326-.486-.73-.73-1.21-.73a1.26 1.26 0 0 0-1.006.471c-.264.308-.468.788-.61 1.441l-.507 2.419c-.283 1.36-.76 2.366-1.431 3.019-.677.652-1.533.975-2.567.969-.874.006-1.631-.231-2.271-.711-.646-.486-1.145-1.16-1.496-2.022-.357-.868-.535-1.868-.535-3 0-1.662.354-2.97 1.061-3.924.708-.961 1.665-1.555 2.872-1.782Zm10.71-9.247c0 1.416-.31 2.631-.932 3.647-.622 1.009-1.48 1.788-2.576 2.336-1.102.541-2.37.812-3.804.812-1.44 0-2.712-.277-3.814-.831-1.108-.554-1.97-1.335-2.585-2.345-.621-1.015-.932-2.216-.932-3.6 0-1.152.212-2.17.637-3.057.418-.892 1.012-1.603 1.782-2.133.763-.529 1.655-.83 2.677-.904v3.194a3.054 3.054 0 0 0-1.708.924c-.462.48-.692 1.123-.692 1.93 0 .682.184 1.282.554 1.8.363.517.886.92 1.57 1.209.683.283 1.501.425 2.455.425.967 0 1.798-.142 2.493-.425.69-.283 1.222-.68 1.597-1.191.37-.517.554-1.123.554-1.819 0-.492-.092-.932-.277-1.32a2.655 2.655 0 0 0-.821-.988c-.357-.265-.791-.446-1.302-.545v-3.194c1.003.08 1.893.375 2.668.886.77.51 1.373 1.206 1.81 2.087.43.88.646 1.914.646 3.102Zm0-15.006c0 1.385-.305 2.585-.914 3.6-.61 1.016-1.462 1.804-2.558 2.364-1.095.555-2.375.831-3.84.831-1.465 0-2.749-.276-3.85-.83-1.102-.56-1.958-1.349-2.567-2.364-.61-1.016-.914-2.216-.914-3.601 0-1.385.304-2.585.914-3.6.61-1.017 1.465-1.801 2.566-2.355 1.102-.56 2.386-.84 3.85-.84 1.466 0 2.746.28 3.841.84 1.096.554 1.949 1.338 2.558 2.354.61 1.016.914 2.216.914 3.601Zm-2.677-.019c0-.75-.207-1.378-.62-1.883-.418-.505-.978-.88-1.68-1.126-.701-.253-1.483-.379-2.345-.379-.867 0-1.652.126-2.354.379-.708.246-1.271.621-1.69 1.126-.418.505-.628 1.133-.628 1.883 0 .77.21 1.41.628 1.921.419.505.982.883 1.69 1.136.702.246 1.487.369 2.354.369.862 0 1.644-.123 2.346-.37.701-.252 1.261-.63 1.68-1.135.412-.51.619-1.151.619-1.92ZM33.614 64.66h-8.218v-3.343h14.182v3.241h-2.52v.148c.794.32 1.443.846 1.948 1.579.504.726.757 1.622.757 2.686 0 .93-.206 1.752-.619 2.466-.418.707-1.025 1.261-1.819 1.662-.8.4-1.766.6-2.899.6h-9.03v-3.343h8.513c.899 0 1.613-.246 2.142-.738.53-.493.794-1.139.794-1.94 0-.492-.12-.969-.36-1.43a2.911 2.911 0 0 0-1.07-1.136c-.481-.302-1.081-.452-1.801-.452Zm-2.345-10.122h8.31v3.342H25.395v-3.194h2.41v-.166a4.055 4.055 0 0 1-1.893-1.56c-.468-.721-.701-1.61-.701-2.67 0-.978.209-1.83.628-2.557.418-.732 1.024-1.298 1.818-1.699.794-.406 1.758-.606 2.89-.6h9.03v3.343h-8.513c-.948 0-1.69.246-2.225.738-.535.487-.803 1.16-.803 2.022 0 .585.13 1.105.388 1.56.252.45.618.804 1.098 1.063.48.252 1.062.378 1.745.378Zm-5.873-19.583h2.585v8.153h-2.585v-8.153ZM22 41.094V37.75h13.314c.449 0 .793-.067 1.034-.203.233-.141.393-.326.48-.554.086-.227.129-.48.129-.757 0-.209-.015-.4-.046-.572a4.999 4.999 0 0 0-.083-.406l2.613-.564c.061.179.129.434.203.767.074.326.117.726.129 1.2.025.837-.102 1.591-.378 2.262a3.52 3.52 0 0 1-1.312 1.597c-.59.388-1.33.579-2.215.573H21.998Z"/><defs><filter id="a" width="85.447" height="179.888" x=".503" y=".503" color-interpolation-filters="sRGB" filterUnits="userSpaceOnUse"><feFlood flood-opacity="0" result="BackgroundImageFix"/><feColorMatrix in="SourceAlpha" result="hardAlpha" values="0 0 0 0 0 0 0 0 0 0 0 0 0 0 0 0 0 0 127 0"/><feOffset dy="2.249"/><feGaussianBlur stdDeviation="1.124"/><feComposite in2="hardAlpha" operator="out"/><feColorMatrix values="0 0 0 0 0 0 0 0 0 0 0 0 0 0 0 0 0 0 0.1 0"/><feBlend in2="BackgroundImageFix" result="effect1_dropShadow_5507_19256"/><feColorMatrix in="SourceAlpha" result="hardAlpha" values="0 0 0 0 0 0 0 0 0 0 0 0 0 0 0 0 0 0 127 0"/><feOffset/><feGaussianBlur stdDeviation="2.249"/><feComposite in2="hardAlpha" operator="out"/><feColorMatrix values="0 0 0 0 0 0 0 0 0 0 0 0 0 0 0 0 0 0 0.14 0"/><feBlend in2="effect1_dropShadow_5507_19256" result="effect2_dropShadow_5507_19256"/><feBlend in="SourceGraphic" in2="effect2_dropShadow_5507_19256" result="shape"/></filter></defs></svg>
